avogadro/qtplugins/templatetool/centers/5-spy.svg

<svg xmlns="http://www.w3.org/2000/svg" xmlns:xlink="http://www.w3.org/1999/xlink" width="36" height="29" viewBox="0 0 36 29" style="background-color:#ffffff00" version="1.1"><path fill="#000" stroke="none" d="M 3557.11,2893.63 L 3526.87,2841.8 L 3840.04,2686.62 L 3846.06,2690.34 L 3845.98,2697.64 L 3557.11,2893.63 Z" transform="matrix(0.05 0 0 0.05 -174 -118)"/><path fill="#000" stroke="none" d="M 3560.17,2644.56 L 3575.75,2586.62 L 3587.05,2590.91 L 3572.11,2646.51 L 3560.17,2644.56 Z" transform="matrix(0.05 0 0 0.05 -174 -118)"/><path fill="#000" stroke="none" d="M 3616.16,2653.71 L 3628.78,2606.77 L 3640.08,2611.06 L 3628.09,2655.66 L 3616.16,2653.71 Z" transform="matrix(0.05 0 0 0.05 -174 -118)"/><path fill="#000" stroke="none" d="M 3672.15,2662.87 L 3681.81,2626.91 L 3693.11,2631.21 L 3684.08,2664.82 L 3672.15,2662.87 Z" transform="matrix(0.05 0 0 0.05 -174 -118)"/><path fill="#000" stroke="none" d="M 3728.13,2672.02 L 3734.84,2647.06 L 3746.14,2651.36 L 3740.06,2673.97 L 3728.13,2672.02 Z" transform="matrix(0.05 0 0 0.05 -174 -118)"/><path fill="#000" stroke="none" d="M 3784.12,2681.17 L 3787.87,2667.21 L 3799.17,2671.51 L 3796.05,2683.13 L 3784.12,2681.17 Z" transform="matrix(0.05 0 0 0.05 -174 -118)"/><path fill="#000" stroke="none" d="M 4116.37,2586.62 L 4131.94,2644.56 L 4120.01,2646.51 L 4105.07,2590.91 L 4116.37,2586.62 Z" transform="matrix(0.05 0 0 0.05 -174 -118)"/><path fill="#000" stroke="none" d="M 4063.34,2606.77 L 4075.96,2653.71 L 4064.03,2655.66 L 4052.04,2611.06 L 4063.34,2606.77 Z" transform="matrix(0.05 0 0 0.05 -174 -118)"/><path fill="#000" stroke="none" d="M 4010.31,2626.91 L 4019.97,2662.87 L 4008.04,2664.82 L 3999.01,2631.21 L 4010.31,2626.91 Z" transform="matrix(0.05 0 0 0.05 -174 -118)"/><path fill="#000" stroke="none" d="M 3957.28,2647.06 L 3963.99,2672.02 L 3952.06,2673.97 L 3945.98,2651.36 L 3957.28,2647.06 Z" transform="matrix(0.05 0 0 0.05 -174 -118)"/><path fill="#000" stroke="none" d="M 3904.25,2667.21 L 3908,2681.17 L 3896.07,2683.13 L 3892.95,2671.51 L 3904.25,2667.21 Z" transform="matrix(0.05 0 0 0.05 -174 -118)"/><path fill="#000" stroke="none" d="M 4153.06,2842.09 L 4121.86,2893.34 L 3845.98,2697.64 L 3846.06,2690.34 L 3852.08,2686.69 L 4153.06,2842.09 Z" transform="matrix(0.05 0 0 0.05 -174 -118)"/><path fill="#000" stroke="none" d="M 3840.04,2402.74 L 3852.08,2402.74 L 3852.08,2686.69 L 3846.06,2690.34 L 3840.04,2686.62 L 3840.04,2402.74 Z" transform="matrix(0.05 0 0 0.05 -174 -118)"/><path fill="#108080" stroke="none" d="M 3716.47,2690.34 A 129.586,129.586 0 1 0 3975.65,2690.34A 129.586,129.586 0 1 0 3716.47,2690.34Z" transform="matrix(0.05 0 0 0.05 -174 -118)"/><path fill="#1e8787" stroke="none" d="M 3717.98,2688.31 A 126.059,126.059 0 1 0 3970.09,2688.31A 126.059,126.059 0 1 0 3717.98,2688.31Z" transform="matrix(0.05 0 0 0.05 -174 -118)"/><path fill="#2c8f8f" stroke="none" d="M 3719.48,2686.29 A 122.531,122.531 0 1 0 3964.54,2686.29A 122.531,122.531 0 1 0 3719.48,2686.29Z" transform="matrix(0.05 0 0 0.05 -174 -118)"/><path fill="#3a9696" stroke="none" d="M 3720.98,2684.26 A 119.004,119.004 0 1 0 3958.99,2684.26A 119.004,119.004 0 1 0 3720.98,2684.26Z" transform="matrix(0.05 0 0 0.05 -174 -118)"/><path fill="#489d9d" stroke="none" d="M 3722.48,2682.24 A 115.477,115.477 0 1 0 3953.44,2682.24A 115.477,115.477 0 1 0 3722.48,2682.24Z" transform="matrix(0.05 0 0 0.05 -174 -118)"/><path fill="#54a4a4" stroke="none" d="M 3723.99,2680.21 A 111.949,111.949 0 1 0 3947.89,2680.21A 111.949,111.949 0 1 0 3723.99,2680.21Z" transform="matrix(0.05 0 0 0.05 -174 -118)"/><path fill="#61abab" stroke="none" d="M 3725.49,2678.19 A 108.422,108.422 0 1 0 3942.33,2678.19A 108.422,108.422 0 1 0 3725.49,2678.19Z" transform="matrix(0.05 0 0 0.05 -174 -118)"/><path fill="#6db1b1" stroke="none" d="M 3726.99,2676.17 A 104.895,104.895 0 1 0 3936.78,2676.17A 104.895,104.895 0 1 0 3726.99,2676.17Z" transform="matrix(0.05 0 0 0.05 -174 -118)"/><path fill="#78b7b7" stroke="none" d="M 3728.49,2674.14 A 101.367,101.367 0 1 0 3931.23,2674.14A 101.367,101.367 0 1 0 3728.49,2674.14Z" transform="matrix(0.05 0 0 0.05 -174 -118)"/><path fill="#83bdbd" stroke="none" d="M 3730,2672.12 A 97.8398,97.8398 0 1 0 3925.68,2672.12A 97.8398,97.8398 0 1 0 3730,2672.12Z" transform="matrix(0.05 0 0 0.05 -174 -118)"/><path fill="#8ec2c2" stroke="none" d="M 3731.5,2670.09 A 94.3125,94.3125 0 1 0 3920.12,2670.09A 94.3125,94.3125 0 1 0 3731.5,2670.09Z" transform="matrix(0.05 0 0 0.05 -174 -118)"/><path fill="#98c8c8" stroke="none" d="M 3733,2668.07 A 90.7852,90.7852 0 1 0 3914.57,2668.07A 90.7852,90.7852 0 1 0 3733,2668.07Z" transform="matrix(0.05 0 0 0.05 -174 -118)"/><path fill="#a1cdcd" stroke="none" d="M 3734.5,2666.04 A 87.2578,87.2578 0 1 0 3909.02,2666.04A 87.2578,87.2578 0 1 0 3734.5,2666.04Z" transform="matrix(0.05 0 0 0.05 -174 -118)"/><path fill="#aad2d2" stroke="none" d="M 3736.01,2664.02 A 83.7305,83.7305 0 1 0 3903.47,2664.02A 83.7305,83.7305 0 1 0 3736.01,2664.02Z" transform="matrix(0.05 0 0 0.05 -174 -118)"/><path fill="#b3d6d6" stroke="none" d="M 3737.51,2661.99 A 80.2031,80.2031 0 1 0 3897.92,2661.99A 80.2031,80.2031 0 1 0 3737.51,2661.99Z" transform="matrix(0.05 0 0 0.05 -174 -118)"/><path fill="#bbdbdb" stroke="none" d="M 3739.01,2659.97 A 76.6758,76.6758 0 1 0 3892.36,2659.97A 76.6758,76.6758 0 1 0 3739.01,2659.97Z" transform="matrix(0.05 0 0 0.05 -174 -118)"/><path fill="#c3dfdf" stroke="none" d="M 3740.51,2657.94 A 73.1484,73.1484 0 1 0 3886.81,2657.94A 73.1484,73.1484 0 1 0 3740.51,2657.94Z" transform="matrix(0.05 0 0 0.05 -174 -118)"/><path fill="#cae3e3" stroke="none" d="M 3742.02,2655.92 A 69.6211,69.6211 0 1 0 3881.26,2655.92A 69.6211,69.6211 0 1 0 3742.02,2655.92Z" transform="matrix(0.05 0 0 0.05 -174 -118)"/><path fill="#d1e6e6" stroke="none" d="M 3743.52,2653.89 A 66.0938,66.0938 0 1 0 3875.71,2653.89A 66.0938,66.0938 0 1 0 3743.52,2653.89Z" transform="matrix(0.05 0 0 0.05 -174 -118)"/><path fill="#d7eaea" stroke="none" d="M 3745.02,2651.87 A 62.5664,62.5664 0 1 0 3870.16,2651.87A 62.5664,62.5664 0 1 0 3745.02,2651.87Z" transform="matrix(0.05 0 0 0.05 -174 -118)"/><path fill="#ddeded" stroke="none" d="M 3746.53,2649.84 A 59.0391,59.0391 0 1 0 3864.6,2649.84A 59.0391,59.0391 0 1 0 3746.53,2649.84Z" transform="matrix(0.05 0 0 0.05 -174 -118)"/><path fill="#e2efef" stroke="none" d="M 3748.03,2647.82 A 55.5117,55.5117 0 1 0 3859.05,2647.82A 55.5117,55.5117 0 1 0 3748.03,2647.82Z" transform="matrix(0.05 0 0 0.05 -174 -118)"/><path fill="#e7f2f2" stroke="none" d="M 3749.53,2645.79 A 51.9844,51.9844 0 1 0 3853.5,2645.79A 51.9844,51.9844 0 1 0 3749.53,2645.79Z" transform="matrix(0.05 0 0 0.05 -174 -118)"/><path fill="#ecf4f4" stroke="none" d="M 3751.03,2643.77 A 48.457,48.457 0 1 0 3847.95,2643.77A 48.457,48.457 0 1 0 3751.03,2643.77Z" transform="matrix(0.05 0 0 0.05 -174 -118)"/><path fill="#f0f7f7" stroke="none" d="M 3752.54,2641.74 A 44.9297,44.9297 0 1 0 3842.39,2641.74A 44.9297,44.9297 0 1 0 3752.54,2641.74Z" transform="matrix(0.05 0 0 0.05 -174 -118)"/><path fill="#f3f8f8" stroke="none" d="M 3754.04,2639.72 A 41.4023,41.4023 0 1 0 3836.84,2639.72A 41.4023,41.4023 0 1 0 3754.04,2639.72Z" transform="matrix(0.05 0 0 0.05 -174 -118)"/><path fill="#f6fafa" stroke="none" d="M 3755.54,2637.69 A 37.875,37.875 0 1 0 3831.29,2637.69A 37.875,37.875 0 1 0 3755.54,2637.69Z" transform="matrix(0.05 0 0 0.05 -174 -118)"/><path fill="#f9fbfb" stroke="none" d="M 3757.04,2635.67 A 34.3477,34.3477 0 1 0 3825.74,2635.67A 34.3477,34.3477 0 1 0 3757.04,2635.67Z" transform="matrix(0.05 0 0 0.05 -174 -118)"/><path fill="#fbfdfd" stroke="none" d="M 3758.55,2633.64 A 30.8203,30.8203 0 1 0 3820.19,2633.64A 30.8203,30.8203 0 1 0 3758.55,2633.64Z" transform="matrix(0.05 0 0 0.05 -174 -118)"/><path fill="#fcfdfd" stroke="none" d="M 3760.05,2631.62 A 27.293,27.293 0 1 0 3814.63,2631.62A 27.293,27.293 0 1 0 3760.05,2631.62Z" transform="matrix(0.05 0 0 0.05 -174 -118)"/><path fill="#fefefe" stroke="none" d="M 3761.55,2629.6 A 23.7656,23.7656 0 1 0 3809.08,2629.6A 23.7656,23.7656 0 1 0 3761.55,2629.6Z" transform="matrix(0.05 0 0 0.05 -174 -118)"/><path fill="#fefefe" stroke="none" d="M 3763.05,2627.57 A 20.2383,20.2383 0 1 0 3803.53,2627.57A 20.2383,20.2383 0 1 0 3763.05,2627.57Z" transform="matrix(0.05 0 0 0.05 -174 -118)"/><path fill="none" stroke="#108080" stroke-width="12" d="M 3716.47,2690.34 A 129.586,129.586 0 1 0 3975.65,2690.34A 129.586,129.586 0 1 0 3716.47,2690.34Z" transform="matrix(0.05 0 0 0.05 -174 -118)"/></svg>

<svg height="29" viewBox="0 0 36 29" width="36" xmlns="http://www.w3.org/2000/svg"><g transform="matrix(.05 0 0 .05 -174 -118)"><path d="m3557.11 2893.63-30.24-51.83 313.17-155.18 6.02 3.72-.08 7.3z"/><path d="m3560.17 2644.56 15.58-57.94 11.3 4.29-14.94 55.6z"/><path d="m3616.16 2653.71 12.62-46.94 11.3 4.29-11.99 44.6z"/><path d="m3672.15 2662.87 9.66-35.96 11.3 4.3-9.03 33.61z"/><path d="m3728.13 2672.02 6.71-24.96 11.3 4.3-6.08 22.61z"/><path d="m3784.12 2681.17 3.75-13.96 11.3 4.3-3.12 11.62z"/><path d="m4116.37 2586.62 15.57 57.94-11.93 1.95-14.94-55.6z"/><path d="m4063.34 2606.77 12.62 46.94-11.93 1.95-11.99-44.6z"/><path d="m4010.31 2626.91 9.66 35.96-11.93 1.95-9.03-33.61z"/><path d="m3957.28 2647.06 6.71 24.96-11.93 1.95-6.08-22.61z"/><path d="m3904.25 2667.21 3.75 13.96-11.93 1.96-3.12-11.62z"/><path d="m4153.06 2842.09-31.2 51.25-275.88-195.7.08-7.3 6.02-3.65z"/><path d="m3840.04 2402.74h12.04v283.95l-6.02 3.65-6.02-3.72z"/><path d="m3716.47 2690.34a129.586 129.586 0 1 0 259.18 0 129.586 129.586 0 1 0 -259.18 0z" fill="#108080"/><path d="m3717.98 2688.31a126.059 126.059 0 1 0 252.11 0 126.059 126.059 0 1 0 -252.11 0z" fill="#1e8787"/><path d="m3719.48 2686.29a122.531 122.531 0 1 0 245.06 0 122.531 122.531 0 1 0 -245.06 0z" fill="#2c8f8f"/><path d="m3720.98 2684.26a119.004 119.004 0 1 0 238.01 0 119.004 119.004 0 1 0 -238.01 0z" fill="#3a9696"/><path d="m3722.48 2682.24a115.477 115.477 0 1 0 230.96 0 115.477 115.477 0 1 0 -230.96 0z" fill="#489d9d"/><path d="m3723.99 2680.21a111.949 111.949 0 1 0 223.9 0 111.949 111.949 0 1 0 -223.9 0z" fill="#54a4a4"/><path d="m3725.49 2678.19a108.422 108.422 0 1 0 216.84 0 108.422 108.422 0 1 0 -216.84 0z" fill="#61abab"/><path d="m3726.99 2676.17a104.895 104.895 0 1 0 209.79 0 104.895 104.895 0 1 0 -209.79 0z" fill="#6db1b1"/><path d="m3728.49 2674.14a101.367 101.367 0 1 0 202.74 0 101.367 101.367 0 1 0 -202.74 0z" fill="#78b7b7"/><path d="m3730 2672.12a97.84 97.84 0 1 0 195.68 0 97.84 97.84 0 1 0 -195.68 0z" fill="#83bdbd"/><path d="m3731.5 2670.09a94.313 94.313 0 1 0 188.62 0 94.313 94.313 0 1 0 -188.62 0z" fill="#8ec2c2"/><path d="m3733 2668.07a90.785 90.785 0 1 0 181.57 0 90.785 90.785 0 1 0 -181.57 0z" fill="#98c8c8"/><path d="m3734.5 2666.04a87.258 87.258 0 1 0 174.52 0 87.258 87.258 0 1 0 -174.52 0z" fill="#a1cdcd"/><path d="m3736.01 2664.02a83.731 83.731 0 1 0 167.46 0 83.731 83.731 0 1 0 -167.46 0z" fill="#aad2d2"/><path d="m3737.51 2661.99a80.203 80.203 0 1 0 160.41 0 80.203 80.203 0 1 0 -160.41 0z" fill="#b3d6d6"/><path d="m3739.01 2659.97a76.676 76.676 0 1 0 153.35 0 76.676 76.676 0 1 0 -153.35 0z" fill="#bbdbdb"/><path d="m3740.51 2657.94a73.148 73.148 0 1 0 146.3 0 73.148 73.148 0 1 0 -146.3 0z" fill="#c3dfdf"/><path d="m3742.02 2655.92a69.621 69.621 0 1 0 139.24 0 69.621 69.621 0 1 0 -139.24 0z" fill="#cae3e3"/><path d="m3743.52 2653.89a66.094 66.094 0 1 0 132.19 0 66.094 66.094 0 1 0 -132.19 0z" fill="#d1e6e6"/><path d="m3745.02 2651.87a62.566 62.566 0 1 0 125.14 0 62.566 62.566 0 1 0 -125.14 0z" fill="#d7eaea"/><path d="m3746.53 2649.84a59.039 59.039 0 1 0 118.07 0 59.039 59.039 0 1 0 -118.07 0z" fill="#ddeded"/><path d="m3748.03 2647.82a55.512 55.512 0 1 0 111.02 0 55.512 55.512 0 1 0 -111.02 0z" fill="#e2efef"/><path d="m3749.53 2645.79a51.984 51.984 0 1 0 103.97 0 51.984 51.984 0 1 0 -103.97 0z" fill="#e7f2f2"/><path d="m3751.03 2643.77a48.457 48.457 0 1 0 96.92 0 48.457 48.457 0 1 0 -96.92 0z" fill="#ecf4f4"/><path d="m3752.54 2641.74a44.93 44.93 0 1 0 89.85 0 44.93 44.93 0 1 0 -89.85 0z" fill="#f0f7f7"/><path d="m3754.04 2639.72a41.402 41.402 0 1 0 82.8 0 41.402 41.402 0 1 0 -82.8 0z" fill="#f3f8f8"/><path d="m3755.54 2637.69a37.875 37.875 0 1 0 75.75 0 37.875 37.875 0 1 0 -75.75 0z" fill="#f6fafa"/><path d="m3757.04 2635.67a34.348 34.348 0 1 0 68.7 0 34.348 34.348 0 1 0 -68.7 0z" fill="#f9fbfb"/><path d="m3758.55 2633.64a30.82 30.82 0 1 0 61.64 0 30.82 30.82 0 1 0 -61.64 0z" fill="#fbfdfd"/><path d="m3760.05 2631.62a27.293 27.293 0 1 0 54.58 0 27.293 27.293 0 1 0 -54.58 0z" fill="#fcfdfd"/><path d="m3761.55 2629.6a23.766 23.766 0 1 0 47.53 0 23.766 23.766 0 1 0 -47.53 0z" fill="#fefefe"/><path d="m3763.05 2627.57a20.238 20.238 0 1 0 40.48 0 20.238 20.238 0 1 0 -40.48 0z" fill="#fefefe"/><path d="m3716.47 2690.34a129.586 129.586 0 1 0 259.18 0 129.586 129.586 0 1 0 -259.18 0z" fill="none" stroke="#108080" stroke-width="12"/></g></svg>
